X:1
T:Title
%%score { ( 1 3 ) | ( 2 4 ) }
L:1/8
M:3/4
K:Ab
V:1 treble nm="Grand Piano"
V:3 treble 
V:2 treble 
V:4 treble 
V:1
 z2 z[Q:1/4=100] E AB | c3 [EBd] [DGB][DE] | [CEA]3 [EA] [DEG][CEA] | [DGB]3 [DGB] [CFA][EGB] | %4
[M:3/8] [EAc]3 | [CE][CEA][DEB] |[M:3/4] [EAc]3 [EBd] [DGB][DE] | [CEA]3 [EAc] [EGB][EGB] | %8
 [EGB][FA] [EG]2 [=DF]2 | E6 |[M:4/4] c2 E>E A2 c2 | [Ac]<[GB] [GB]>[_G=A] [=GB]4 | %12
 [Gd]2 [G,E]>[G,E] [DGB]2 [FGd]2 | d<c c>_c =c4 | e2 [EA]>[EA] [EGB]2 [E_Gc]2 | z4 d4 | %16
 c3 A B2 E2 |[M:5/8] [CEA]-[CEA]- [CEA]3 |] %18
V:2
 z2 z [A,C] [A,CE][A,DE] | [A,EA]3[K:bass] E, E,E, | A,,3 C, B,,A,, | E,3 E, F,E, |[M:3/8] A,3 | %5
 A,A,A, |[M:3/4] A,3 E, E,E, | A,,3 A,, B,,B,, | B,,[B,,B,] [B,,B,]2 [B,,A,]2 | [E,G,]6 | %10
[M:4/4][K:treble] [A,E]2 [A,C]>[A,C] [A,CE]2 [A,EA]2 | [E,E]<[E,E] [E,D]>[E,C] [E,D]4 | %12
 [E,B,]2 E,>E, E,2 E,2 | [A,FA]<[A,EA] [A,EA]>[A,=DA] [A,EA]4 | [A,CA]2[K:bass] C,>C, E,2 A,2 | %15
 z4[K:treble] F2 z2 | [A,EA]3 [A,CE][K:bass] [E,DE]2 [E,D]2 |[M:5/8] A,,-A,,- A,,3 |] %18
V:3
 x6 | x6 | x6 | x6 |[M:3/8] x3 | x3 |[M:3/4] x6 | x6 | x6 | x6 |[M:4/4] x8 | x8 | x8 | x8 | x8 | %15
 [Fe]<[Fd] [Fd]>c z2 G2 | x8 |[M:5/8] x5 |] %18
V:4
 x6 | x3[K:bass] x3 | x6 | x6 |[M:3/8] x3 | x3 |[M:3/4] x6 | x6 | x6 | x6 |[M:4/4][K:treble] x8 | %11
 x8 | x8 | x8 | x2[K:bass] x6 | [D,D]<[D,A,] [D,A,]>[K:treble][F,=A,F] B,2- [B,E]2 | %16
 x4[K:bass] x4 |[M:5/8] x5 |] %18

